svgs/sharp-solid/keyboard-down.svg

<svg xmlns="http://www.w3.org/2000/svg" viewBox="0 0 576 512"><!--! Font Awesome Pro 6.6.0 by @fontawesome - https://fontawesome.com License - https://fontawesome.com/license (Commercial License) Copyright 2024 Fonticons, Inc. --><path d="M576 0L0 0 0 288l576 0L576 0zM128 64l0 64-64 0 0-64 64 0zM64 160l64 0 0 64-64 0 0-64zm352 0l0 64-256 0 0-64 256 0zm32 0l64 0 0 64-64 0 0-64zM224 64l0 64-64 0 0-64 64 0zm32 0l64 0 0 64-64 0 0-64zm160 0l0 64-64 0 0-64 64 0zm32 0l64 0 0 64-64 0 0-64zM160 352l0 32L288 512 416 384l0-32-256 0z"/></svg>

<svg xmlns="http://www.w3.org/2000/svg" viewBox="0 0 576 512"><!--! Font Awesome Pro 6.4.2 by @fontawesome - https://fontawesome.com License - https://fontawesome.com/license (Commercial License) Copyright 2023 Fonticons, Inc. --><path d="M576 0H0V288H576V0zM128 64v64H64V64h64zM64 160h64v64H64V160zm352 0v64H160V160H416zm32 0h64v64H448V160zM224 64v64H160V64h64zm32 0h64v64H256V64zm160 0v64H352V64h64zm32 0h64v64H448V64zM160 352v32L288 512 416 384V352H160z"/></svg>
